public/images/logos/kiloo.svg

<svg fill="none" height="42" viewBox="0 0 160 42" width="160" xmlns="http://www.w3.org/2000/svg" xmlns:xlink="http://www.w3.org/1999/xlink"><clipPath id="a"><path d="m0 .126709h160v41.7466h-160z"/></clipPath><g clip-path="url(#a)"><path clip-rule="evenodd" d="m119.353 12.0593c3.371-7.11478 10.739-11.932591 19.72-11.932591 12.183 0 20.927 8.900611 20.927 20.562691v.0492c0 11.9725-9.005 21.1347-21.288 21.1347-8.84 0-16.173-4.9093-19.469-12.1337-3.254 7.2699-10.462 12.1337-19.4109 12.1337-12.0774 0-21.3419-9.1622-21.3419-20.8738 0-11.71333 9.3159-20.872791 21.7038-20.872791 8.93 0 16.014 4.784041 19.159 11.932591zm-19.3647 20.9643c6.8687 0 11.2967-5.3086 11.2967-12.075v-.0538c0-6.6614-4.738-11.92114-11.2967-11.92114-6.82 0-11.6622 5.10354-11.6622 12.02584 0 6.767 4.7372 12.0241 11.6622 12.0241zm38.8797 0c6.87 0 11.296-5.3086 11.296-12.075v-.0538c0-6.6614-4.739-11.92114-11.296-11.92114-6.82 0-11.66 5.10354-11.66 12.02584 0 6.767 4.736 12.0241 11.66 12.0241zm-112.3715-24.15249-8.9563 10.51449 10.6709 12.7028c3.4971 4.1426 5.4936 6.4728 6.6032 7.7678l.0005.0006.0001.0002.0007.0008c.6737.7863 1.0201 1.1906 1.1769 1.3873h-12.325l-.0351-.0483c-.1411-.1884-.6106-.7795-1.4949-1.8926-1.0756-1.3538-2.7648-3.48-5.2225-6.5931l-7.12795-9.0032-.10516-.1431v17.6804h-9.68189v-40.598471h9.68189v15.876971l.00277.1334 6.39974-8.46252c1.5258-2.01986 2.6792-3.54329 3.5369-4.67609l.0008-.00109c1.2187-1.60962 1.8401-2.4303 2.0839-2.765821l.0705-.10485h11.5172c-.1157.132757-.3874.465431-.85 1.031641v.00002c-.9916 1.21385-2.8599 3.501-5.9472 7.19272zm11.8629 8.95389v-16.96857-.209701h4.8397 4.8422v.15633 17.021941 5.2034 18.1171.0996h-4.6321-5.0498v-.1536-18.0631zm37.1657 15.3036h-10.0459c-.2097 0-.2097-.0513-.2097-.2596v-32.222271h-9.6308v40.598471h21.6546v-8.1166z" fill="#111" fill-rule="evenodd"/></g></svg>

<svg width="160" height="42" viewBox="0 0 160 42" fill="none" xmlns="http://www.w3.org/2000/svg">
<g clip-path="url(#clip0_549_6526)">
<path fill-rule="evenodd" clip-rule="evenodd" d="M119.353 12.0593C122.724 4.94452 130.092 0.126709 139.073 0.126709C151.256 0.126709 160 9.02732 160 20.6894V20.7386C160 32.7111 150.995 41.8733 138.712 41.8733C129.872 41.8733 122.539 36.964 119.243 29.7396C115.989 37.0095 108.781 41.8733 99.8321 41.8733C87.7547 41.8733 78.4902 32.7111 78.4902 20.9995C78.4902 9.28617 87.8061 0.126709 100.194 0.126709C109.124 0.126709 116.208 4.91075 119.353 12.0593ZM99.9883 33.0236C106.857 33.0236 111.285 27.715 111.285 20.9486V20.8948C111.285 14.2334 106.547 8.97366 99.9883 8.97366C93.1683 8.97366 88.3261 14.0772 88.3261 20.9995C88.3261 27.7665 93.0633 33.0236 99.9883 33.0236ZM138.868 33.0236C145.738 33.0236 150.164 27.715 150.164 20.9486V20.8948C150.164 14.2334 145.425 8.97366 138.868 8.97366C132.048 8.97366 127.208 14.0772 127.208 20.9995C127.208 27.7665 131.944 33.0236 138.868 33.0236ZM26.4965 8.87111L17.5402 19.3856L28.2111 32.0884C31.7082 36.231 33.7047 38.5612 34.8143 39.8562L34.8148 39.8568L34.8149 39.857L34.8156 39.8578C35.4893 40.6441 35.8357 41.0484 35.9925 41.2451H23.6675L23.6324 41.1968C23.4913 41.0084 23.0218 40.4173 22.1375 39.3042C21.0619 37.9504 19.3727 35.8242 16.915 32.7111L9.78705 23.7079L9.68189 23.5648V41.2452H0V0.646729H9.68189V16.5237L9.68466 16.6571L16.0844 8.19458C17.6102 6.17472 18.7636 4.65129 19.6213 3.51849L19.6221 3.5174C20.8408 1.90778 21.4622 1.0871 21.706 0.751579L21.7765 0.646729H33.2937C33.178 0.779486 32.9063 1.11216 32.4437 1.67837L32.4437 1.67839C31.4521 2.89224 29.5838 5.17939 26.4965 8.87111ZM38.3594 17.825V0.85643V0.646729H43.1991H48.0413V0.803059V17.825V23.0284V41.1455V41.2451H43.4092H38.3594V41.0915V23.0284V17.825ZM75.5251 33.1286H65.4792C65.2695 33.1286 65.2695 33.0773 65.2695 32.869V0.646729H55.6387V41.2452H77.2933V33.1286H75.5251Z" fill="#111111"/>
</g>
<defs>
<clipPath id="clip0_549_6526">
<rect width="160" height="41.7466" fill="white" transform="translate(0 0.126709)"/>
</clipPath>
</defs>
</svg>
